!!!COM:	de F&eacute;vin, Antoine
!!!CDT: ~1470-~1511
!!!COA:	Josquin des Prez
!!!CDT:	~1450-1521/08/27
!!!OTL:	Fors seulement I
!!!AGN:	Chanson
!!!SCT:	NJE 27.10
!!!SCA:	New Josquin Edition 27.10
!!!voices:	3
**kern	**kern	**kern
*staff3	*staff2	*staff1
*Ivox	*Ivox	*Ivox
*I"Contra	*I"Tenor	*I"Superius
*I'C	*I'T	*I'S
*clefGv2	*clefG2	*clefG2
*k[]	*k[]	*k[]
*M2/1	*M2/1	*M2/1
*met(C|)	*met(C|)	*met(C|)
=1-	=1-	=1-
0A	0A	0r
=2	=2	=2
2.A/	2.A/	0r
4G/	4B/	.
2F/	4c/	.
.	4A/	.
4E/	[2d/	.
4D/	.	.
=3	=3	=3
2F/	2d/]	0r
2G/	4c#i/	.
.	4B/	.
1E	2.c#i/	.
.	4d/	.
=4	=4	=4
[0D	[0d	0a
=5	=5	=5
1D]	1d]	2.a/
.	.	4b\
1r	2r	4cc\
.	.	4a/
.	2d/	[2dd\
=6	=6	=6
1r	1e	2dd\]
.	.	4cc#i\
.	.	4b\
1A	1e	2.cc#i\
.	.	4dd\
=7	=7	=7
1.d	1.f	0dd
4c\	4e/	.
4B\	4d/	.
=8	=8	=8
2d\	2f/	1r
2.c\	2.e/	.
.	.	1ee
4B\	4d/	.
[2A/	4c/	.
.	4B/	.
=9	=9	=9
2A/]	2A/	1ee
4G/	1d	.
4F/	.	.
1E	.	1ee
.	2c#i/	.
=10	=10	=10
2D/	1d	1ff
2d\	.	.
2c\	1a	2ee\
[2d\	.	[2ff\
=11	=11	=11
2d\]	1a	2ff\]
4c\	.	4ee\
4B\	.	4dd\
2.A/	1a	2.cc\
4B\	.	4dd\
=12	=12	=12
4c\	1a	4ee\
4d\	.	4ff\
2.c\	.	2.ee\
.	1g	.
4B\	.	4dd\
4A/	.	4cc\
4G/	.	4b\
=13	=13	=13
0F	1.cc	0a
.	4b\	.
.	4a/	.
=14	=14	=14
2.c\	2.g/	1ee
8B/L	4a/	.
8A/J	.	.
2G/	4b\	2dd\
.	4g/	.
2F/	[2a/	[2ff\
=15	=15	=15
2D/	2a/]	2ff\]
2E/	2g/	2ee\
2F/	1f	1dd
2G/	.	.
=16	=16	=16
2.A/	2e/	2.cc\
.	1a	.
4G/	.	8b/L
.	.	8a/J
4A/	.	2cc\
4F/	.	.
2G/	2g/	2b\
=17	=17	=17
2A/	2.f/	2a/
2B-i\	.	1dd
.	8e/L	.
.	8d/J	.
2G/	1e	.
2A/	.	2cc#i\
=18	=18	=18
2F/	0d	1dd
2G/	.	.
1D	.	1r
=19	=19	=19
1r	0r	0ee
1A	.	.
=20	=20	=20
1A	0a	1ee
1A	.	1ee
=21	=21	=21
1.d	1a	1.ff
.	1a	.
4c\	.	4ee\
4B\	.	4dd\
=22	=22	=22
1A	1.cc	0ee
1A	.	.
.	4b\	.
.	4a/	.
=23	=23	=23
1.c	0g	1r
.	.	[1ee
4B\	.	.
4A/	.	.
=24	=24	=24
2.G/	1r	2ee\]
.	.	4dd\
4A/	.	4cc\
2B\	1g	2dd\
2c\	.	2ee\
=25	=25	=25
2.F/	2.a/	1ff
4G/	4b\	.
2A/	2cc\	2ee\
2B\	[2b\	[2dd\
=26	=26	=26
2G/	4b\]	4dd\]
.	4a/	4cc\
2A/	1a	4b\
.	.	4a/
2.e\	.	1b
.	2g#i/	.
4d\	.	.
=27	=27	=27
4c\	1.a	0a
4B\	.	.
2d\	.	.
2A/	.	.
2d\	4g/	.
.	4f/	.
=28	=28	=28
2.c\	0e	1r
4B\	.	.
4A/	.	1cc
4G/	.	.
[2A/	.	.
=29	=29	=29
2A/]	1e	1cc
4G/	.	.
4F/	.	.
2E/	1e	1cc
2A/	.	.
=30	=30	=30
0D	1.f	1dd
.	.	1ff
.	4e/	.
.	4d/	.
=31	=31	=31
1r	0c	1.ee
1A	.	.
.	.	4dd\
.	.	4cc\
=32	=32	=32
2G/	2.d/	2b\
1d	.	1a
.	4e/	.
.	2f/	.
2c\	[2g/	[2ee\
=33	=33	=33
1B	4g/]	2ee\]
.	4f/	.
.	4e/	1dd
.	4d/	.
1A	1e	.
.	.	2cc#i\
=34	=34	=34
0D	2r	0dd
.	2.d/	.
.	4e/	.
.	4f/	.
.	4g/	.
=35	=35	=35
1d	2.a/	1ff
.	4b\	.
2c\	2cc\	2ee\
[2d\	[2b\	[2ff\
=36	=36	=36
4d\]	4b\]	4ff\]
4c\	4a/	4ee\
4B\	1a	4dd\
4A/	.	4cc\
1B	.	1dd
.	2g#i/	.
=37	=37	=37
0A	1a	0cc
.	1r	.
=38	=38	=38
1r	0a	2r
.	.	2.f/
2r	.	.
.	.	4g/
[2F/	.	4a/
.	.	4b\
=39	=39	=39
4F/]	1a	2.cc\
4G/	.	.
4A/	.	.
4B\	.	4dd\
2c\	1a	4ee\
.	.	4cc\
2A/	.	[2ff\
=40	=40	=40
2B\	1g	2ff\]
2c\	.	2ee\
2.d\	1f	[1ff
4c\	.	.
=41	=41	=41
4d\	1f	2ff\]
4e\	.	.
1f	.	4ee\
.	.	4dd\
.	2.a/	1cc
4e\	.	.
4d\	4b\	.
=42	=42	=42
2c\	2cc\	1r
1d	2.b\	.
.	.	2r
.	4a/	.
2c\	[2a/	2cc\
=43	=43	=43
1B	2a/]	2.dd\
.	2g/	.
.	.	4ee\
1A	2.a/	2ff\
.	.	[2ee\
.	4g/	.
=44	=44	=44
1B	2f/	4ee\]
.	.	4dd\
.	4e/	1dd
.	4d/	.
1A	1e	.
.	.	2cc#i\
=45	=45	=45
1r	1d	0dd
[1d	1r	.
=46	=46	=46
2d\]	0a	1r
4c\	.	.
4B\	.	.
1A	.	1cc
=47	=47	=47
0G	1b	1dd
.	1b	1dd
=48	=48	=48
1c	2.cc\	2.ee\
.	4b\	4dd\
2r	2a/	2cc\
2e\	2g/	2b\
=49	=49	=49
2.f\	2.a/	1a
4e\	4g/	.
2d\	2f/	2r
2c\	2e/	2ee\
=50	=50	=50
2.d\	1d	2.ff\
4c\	.	4ee\
2B\	2r	2dd\
2A/	2a/	2cc\
=51	=51	=51
1G	2.b\	2.dd\
.	4a/	4cc\
2r	2g/	2b\
2f\	2f/	2a/
=52	=52	=52
2.g\	2.e/	1g
4f\	4d/	.
2e\	2c/	2r
2d\	2B/	2dd\
=53	=53	=53
2.c\	1A	2.ee\
4B\	.	4dd\
2A/	2r	2cc\
2G/	2e/	2b\
=54	=54	=54
2F/	2.f/	2.a/
4D/	.	.
4E/	4e/	4g/
4F/	2d/	2f/
4G/	.	.
2A/	2c#i/	2e/
=55	=55	=55
2D/	2.d/	4d/
.	.	4e/
1d	.	4f/
.	4e/	4g/
.	4f/	4a/
.	4g/	4b\
4c\	[2a/	4cc\
4B\	.	4dd\
=56	=56	=56
2A/	2a/]	4ee\
.	.	4ff\
2B\	4g/	2.gg\
.	4f/	.
1G	2g/	.
.	.	4ff\
.	2b-i\	4dd\
.	.	4ee\
=57	=57	=57
2d\	1a	2ff\
2.c\	.	2.ee\
.	2g/	.
4B\	.	4dd\
4A/	[2a/	4cc\
4G/	.	4b\
=58	=58	=58
2F/	2a/]	2a/
2G/	4g/	1dd
.	4f/	.
1A	1e	.
.	.	2cc#i\
=59	=59	=59
0Dl	0dl	0ddl
==	==	==
*-	*-	*-
!!!RDF**kern: l=long note in original notation
!!!RDF**kern: i=editorial accidental
!!!RDF**kern: V=start of tuplet marker
!!!RDF**kern: Z=end of tuplet marker
!!!ENC:	Victoria Chang 2012/03/27
!!!END:	2012/03/27/
!!!EED:	Jesse Rodin
!!!EEV:	2012/03/28/
!!attribution-level@Jos: 4 (questionable)
!!!ONB:	Translated from MusicXML and edited on 2012/03/28/ by Craig Sapp
!!muse2ps: C^@{COM}\n@{SCT}^i2I150v85,85,150Q16
